icons/device-camera-video-24.svg

<svg width="24" height="24" viewBox="0 0 24 24" fill="none" xmlns="http://www.w3.org/2000/svg">
<path fill-rule="evenodd" clip-rule="evenodd" d="M24 5.25C24 4.9798 23.8547 4.73048 23.6195 4.59735C23.3844 4.46422 23.0958 4.46786 22.8641 4.60688L16.5 8.42536V6.25C16.5 5.2835 15.7165 4.5 14.75 4.5H1.75C0.783502 4.5 0 5.2835 0 6.25V17.25C0 18.2165 0.783502 19 1.75 19H14.75C15.7165 19 16.5 18.2165 16.5 17.25V15.0746L22.8641 18.8931C23.0958 19.0321 23.3844 19.0358 23.6195 18.9027C23.8547 18.7695 24 18.5202 24 18.25V5.25ZM16.5 13.3254L22.5 16.9254V6.57464L16.5 10.1746V13.3254ZM15 6.25C15 6.11193 14.8881 6 14.75 6H1.75C1.61193 6 1.5 6.11193 1.5 6.25V17.25C1.5 17.3881 1.61193 17.5 1.75 17.5H14.75C14.8881 17.5 15 17.3881 15 17.25V6.25Z" fill="#24292E"/>
</svg>

<svg xmlns="http://www.w3.org/2000/svg" width="24" height="24" viewBox="0 0 24 24"><path fill-rule="evenodd" d="M24 5.25a.75.75 0 00-1.136-.643L16.5 8.425V6.25a1.75 1.75 0 00-1.75-1.75h-13A1.75 1.75 0 000 6.25v11C0 18.216.784 19 1.75 19h13a1.75 1.75 0 001.75-1.75v-2.175l6.364 3.818A.75.75 0 0024 18.25v-13zm-7.5 8.075l6 3.6V6.575l-6 3.6v3.15zM15 9.75v-3.5a.25.25 0 00-.25-.25h-13a.25.25 0 00-.25.25v11c0 .138.112.25.25.25h13a.25.25 0 00.25-.25v-7.5z"/></svg>
